packages/brand/src/logos/stencilaLogo.svg

<svg fill="none" height="64" viewBox="0 0 257 64" width="257" xmlns="http://www.w3.org/2000/svg"><g fill="#2568ef"><path d="m104.387 39.64c0 5.6533-5.7603 9.3867-12.0537 9.3867-6.2933 0-10.6666-3.2-12.6933-6.6134l5.3333-3.4133c1.6 2.7733 4.2667 4.2667 7.36 4.3733 2.6667.1067 4.6934-.8533 5.3334-2.6666.5333-1.7067-.32-3.4134-2.3467-4.2667-1.8133-.7467-6.72-3.0933-7.7867-3.52-3.7333-1.8133-6.2933-4.0533-6.2933-8.4267-.1067-5.6533 5.0133-9.4933 11.3067-9.4933 5.3333 0 9.1733 2.4533 11.4133 5.9733l-5.3333 2.9867c-1.0667-1.8133-3.2-3.6267-5.9734-3.6267-3.2 0-4.9066 1.4934-5.3333 3.2-.32 1.92 1.0667 3.3067 3.2 4.16 1.3867.64 6.08 2.88 7.7867 3.6267 3.3063 1.6 6.0803 4.0533 6.0803 8.32z"/><path d="m125.187 46.8933c-1.707 1.0667-4.054 1.8134-6.187 1.8134-4.587 0-7.04-3.4134-7.04-7.68v-11.4134h-5.227v-4.5866h5.334v-7.1467h5.973v7.1467h6.933v4.5866h-6.826v11.0934c0 2.0266.96 2.7733 2.773 2.7733.853.1067 1.92-.32 2.453-.64z"/><path d="m147.267 38.7867h-14.507c.853 2.6666 3.413 4.5866 5.973 4.5866 2.454 0 4.374-1.0666 5.334-2.1333.213-.32.533-.64.533-.64l4.267 3.6267c-1.814 2.24-5.44 4.48-10.027 4.48-6.613 0-12.053-5.44-12.053-12.16s5.546-12.16 12.053-12.16c3.733 0 7.573 1.8133 9.707 4.9066 1.493 2.0267 2.133 4.16 2.133 6.6134-.107 1.4933-1.173 2.88-3.413 2.88zm-14.614-4.2667h11.84c-.533-2.0267-2.346-4.48-5.76-4.48-2.88-.1067-5.226 1.92-6.08 4.48z"/><path d="m177.24 35.2667v12.9066h-5.867v-12.8c0-2.9866-2.453-5.3333-5.44-5.3333-2.986 0-5.44 2.24-5.44 5.6533v12.3734h-5.866v-23.04h5.44v2.6666c1.813-2.24 4.48-3.2 7.146-3.2 6.08 0 10.027 4.6934 10.027 10.7734z"/><path d="m204.44 44.2267c-2.24 2.88-5.973 4.6933-9.92 4.6933-6.827 0-12.587-5.5467-12.587-12.2667s5.76-12.2666 12.587-12.2666c3.947 0 7.573 1.8133 9.813 4.5866l-4.8 3.3067c-1.173-1.3867-3.093-2.1333-5.013-2.1333-3.627 0-6.507 2.88-6.507 6.6133 0 3.6267 2.88 6.6133 6.507 6.6133 2.027 0 4.053-.8533 5.227-2.3466z"/><path d="m207.533 18.9467c0-1.92 1.707-3.52 3.84-3.52 2.027 0 3.734 1.6 3.734 3.52s-1.707 3.52-3.734 3.52c-2.133 0-3.84-1.6-3.84-3.52zm.747 6.08h5.867v23.1466h-5.867z"/><path d="m229.08 43.48 1.6 3.9467c-1.6.96-3.413 1.3866-4.48 1.3866-3.733 0-5.867-2.6666-5.867-6.5066v-26.88h5.974v26.4533c0 .64.32 1.0667.64 1.3867.426.2133.96.4266 2.133.2133z"/><path d="m256.28 25.0267v23.1466h-5.44v-2.4533c-1.707 1.92-4.373 3.2-7.253 3.2-6.827 0-12.054-5.5467-12.054-12.2667 0-6.8266 5.227-12.2666 12.054-12.2666 2.88 0 5.653 1.28 7.253 3.0933v-2.4533zm-5.973 14.1866v-5.2266c-1.067-2.3467-3.414-4.0534-6.08-4.0534-1.387 0-2.774.4267-3.84 1.1734-1.707 1.1733-2.88 3.2-2.88 5.44s1.173 4.2666 2.88 5.44c1.066.7466 2.346 1.1733 3.84 1.1733 2.666.1067 5.013-1.6 6.08-3.9467z"/></g><path d="m0 0v64h64v-64zm32 49.0667c-9.4933 0-17.1733-7.68-17.1733-17.1734 0-9.4933 7.68-17.1733 17.1733-17.1733s17.1733 7.68 17.1733 17.1733c0 9.4934-7.68 17.1734-17.1733 17.1734z" fill="#6f6"/><path d="m46.5067 49.1733c9.4846 0 17.1733-7.6887 17.1733-17.1733s-7.6887-17.1733-17.1733-17.1733-17.1734 7.6887-17.1734 17.1733 7.6888 17.1733 17.1734 17.1733z" fill="#2568ef"/><path d="m46.5066 14.8267c-2.6667 0-5.2267.64-7.36 1.7066 5.76 2.7734 9.7067 8.64 9.7067 15.4667s-3.9467 12.6933-9.7067 15.4667c2.24 1.0666 4.8 1.7066 7.36 1.7066 9.4933 0 17.1733-7.68 17.1733-17.1733s-7.7866-17.1733-17.1733-17.1733z" fill="#0f6860"/></svg>

<svg width="257" height="64" viewBox="0 0 257 64" fill="none" xmlns="http://www.w3.org/2000/svg">
<path d="M104.387 39.64C104.387 45.2933 98.6267 49.0267 92.3333 49.0267C86.04 49.0267 81.6667 45.8267 79.64 42.4133L84.9733 39C86.5733 41.7733 89.24 43.2667 92.3333 43.3733C95 43.48 97.0267 42.52 97.6667 40.7067C98.2 39 97.3467 37.2933 95.32 36.44C93.5067 35.6933 88.6 33.3467 87.5333 32.92C83.8 31.1067 81.24 28.8667 81.24 24.4933C81.1333 18.84 86.2533 15 92.5467 15C97.88 15 101.72 17.4533 103.96 20.9733L98.6267 23.96C97.56 22.1467 95.4267 20.3333 92.6533 20.3333C89.4533 20.3333 87.7467 21.8267 87.32 23.5333C87 25.4533 88.3867 26.84 90.52 27.6933C91.9067 28.3333 96.6 30.5733 98.3067 31.32C101.613 32.92 104.387 35.3733 104.387 39.64Z" fill="#2568EF"/>
<path d="M125.187 46.8933C123.48 47.96 121.133 48.7067 119 48.7067C114.413 48.7067 111.96 45.2933 111.96 41.0267V29.6133H106.733V25.0267H112.067V17.88H118.04V25.0267H124.973V29.6133H118.147V40.7067C118.147 42.7333 119.107 43.48 120.92 43.48C121.773 43.5867 122.84 43.16 123.373 42.84L125.187 46.8933Z" fill="#2568EF"/>
<path d="M147.267 38.7867H132.76C133.613 41.4533 136.173 43.3733 138.733 43.3733C141.187 43.3733 143.107 42.3067 144.067 41.24C144.28 40.92 144.6 40.6 144.6 40.6L148.867 44.2267C147.053 46.4667 143.427 48.7067 138.84 48.7067C132.227 48.7067 126.787 43.2667 126.787 36.5467C126.787 29.8267 132.333 24.3867 138.84 24.3867C142.573 24.3867 146.413 26.2 148.547 29.2933C150.04 31.32 150.68 33.4533 150.68 35.9067C150.573 37.4 149.507 38.7867 147.267 38.7867ZM132.653 34.52H144.493C143.96 32.4933 142.147 30.04 138.733 30.04C135.853 29.9333 133.507 31.96 132.653 34.52Z" fill="#2568EF"/>
<path d="M177.24 35.2667V48.1733H171.373V35.3733C171.373 32.3867 168.92 30.04 165.933 30.04C162.947 30.04 160.493 32.28 160.493 35.6933V48.0667H154.627V25.0267H160.067V27.6933C161.88 25.4533 164.547 24.4933 167.213 24.4933C173.293 24.4933 177.24 29.1867 177.24 35.2667Z" fill="#2568EF"/>
<path d="M204.44 44.2267C202.2 47.1067 198.467 48.92 194.52 48.92C187.693 48.92 181.933 43.3733 181.933 36.6533C181.933 29.9333 187.693 24.3867 194.52 24.3867C198.467 24.3867 202.093 26.2 204.333 28.9733L199.533 32.28C198.36 30.8933 196.44 30.1467 194.52 30.1467C190.893 30.1467 188.013 33.0267 188.013 36.76C188.013 40.3867 190.893 43.3733 194.52 43.3733C196.547 43.3733 198.573 42.52 199.747 41.0267L204.44 44.2267Z" fill="#2568EF"/>
<path d="M207.533 18.9467C207.533 17.0267 209.24 15.4267 211.373 15.4267C213.4 15.4267 215.107 17.0267 215.107 18.9467C215.107 20.8667 213.4 22.4667 211.373 22.4667C209.24 22.4667 207.533 20.8667 207.533 18.9467ZM208.28 25.0267H214.147V48.1733H208.28V25.0267Z" fill="#2568EF"/>
<path d="M229.08 43.48L230.68 47.4267C229.08 48.3867 227.267 48.8133 226.2 48.8133C222.467 48.8133 220.333 46.1467 220.333 42.3067V15.4267H226.307V41.88C226.307 42.52 226.627 42.9467 226.947 43.2667C227.373 43.48 227.907 43.6933 229.08 43.48Z" fill="#2568EF"/>
<path d="M256.28 25.0267V48.1733H250.84V45.72C249.133 47.64 246.467 48.92 243.587 48.92C236.76 48.92 231.533 43.3733 231.533 36.6533C231.533 29.8267 236.76 24.3867 243.587 24.3867C246.467 24.3867 249.24 25.6667 250.84 27.48V25.0267H256.28ZM250.307 39.2133V33.9867C249.24 31.64 246.893 29.9333 244.227 29.9333C242.84 29.9333 241.453 30.36 240.387 31.1067C238.68 32.28 237.507 34.3067 237.507 36.5467C237.507 38.7867 238.68 40.8133 240.387 41.9867C241.453 42.7333 242.733 43.16 244.227 43.16C246.893 43.2667 249.24 41.56 250.307 39.2133Z" fill="#2568EF"/>
<path d="M0 0V64H64V0H0ZM32 49.0667C22.5067 49.0667 14.8267 41.3867 14.8267 31.8933C14.8267 22.4 22.5067 14.72 32 14.72C41.4933 14.72 49.1733 22.4 49.1733 31.8933C49.1733 41.3867 41.4933 49.0667 32 49.0667Z" fill="#66FF66"/>
<path d="M46.5067 49.1733C55.9913 49.1733 63.68 41.4846 63.68 32C63.68 22.5154 55.9913 14.8267 46.5067 14.8267C37.0221 14.8267 29.3333 22.5154 29.3333 32C29.3333 41.4846 37.0221 49.1733 46.5067 49.1733Z" fill="#2568EF"/>
<path d="M46.5066 14.8267C43.8399 14.8267 41.2799 15.4667 39.1466 16.5333C44.9066 19.3067 48.8533 25.1733 48.8533 32C48.8533 38.8267 44.9066 44.6933 39.1466 47.4667C41.3866 48.5333 43.9466 49.1733 46.5066 49.1733C55.9999 49.1733 63.6799 41.4933 63.6799 32C63.6799 22.5067 55.8933 14.8267 46.5066 14.8267Z" fill="#0F6860"/>
</svg>
